icons/modern/left-speech-bubble.svg

<svg width="33" height="32" viewBox="0 0 33 32" fill="none" xmlns="http://www.w3.org/2000/svg">
	<g filter="url(#filter0_i_7155_6142)">
		<path d="M30.4966 14.5404C28.5625 10.75 24.1144 6.26831 17 6.26831C9.86582 6.26831 5.46877 10.5156 3.54302 14.58C3.0186 15.4309 2.99881 16.4501 3.50344 17.3109C6.00684 21.635 9.88561 25.583 17 25.583C17.9468 25.583 18.8781 25.5416 19.7295 25.4207C20.1896 25.3554 20.6634 25.4135 21.0723 25.6343C22.2265 26.2576 23.3871 26.9337 24.8664 27.7698C25.3216 28.0271 25.8757 27.6807 25.846 27.1563L25.6296 23.7478C25.5975 23.2423 25.8264 22.7589 26.2139 22.4326C27.9431 20.9768 29.299 19.1442 30.457 17.2615C30.9814 16.4105 31.0012 15.4012 30.4966 14.5404Z" fill="url(#paint0_radial_7155_6142)" />
		<path d="M30.4966 14.5404C28.5625 10.75 24.1144 6.26831 17 6.26831C9.86582 6.26831 5.46877 10.5156 3.54302 14.58C3.0186 15.4309 2.99881 16.4501 3.50344 17.3109C6.00684 21.635 9.88561 25.583 17 25.583C17.9468 25.583 18.8781 25.5416 19.7295 25.4207C20.1896 25.3554 20.6634 25.4135 21.0723 25.6343C22.2265 26.2576 23.3871 26.9337 24.8664 27.7698C25.3216 28.0271 25.8757 27.6807 25.846 27.1563L25.6296 23.7478C25.5975 23.2423 25.8264 22.7589 26.2139 22.4326C27.9431 20.9768 29.299 19.1442 30.457 17.2615C30.9814 16.4105 31.0012 15.4012 30.4966 14.5404Z" fill="url(#paint1_radial_7155_6142)" />
		<path d="M30.4966 14.5404C28.5625 10.75 24.1144 6.26831 17 6.26831C9.86582 6.26831 5.46877 10.5156 3.54302 14.58C3.0186 15.4309 2.99881 16.4501 3.50344 17.3109C6.00684 21.635 9.88561 25.583 17 25.583C17.9468 25.583 18.8781 25.5416 19.7295 25.4207C20.1896 25.3554 20.6634 25.4135 21.0723 25.6343C22.2265 26.2576 23.3871 26.9337 24.8664 27.7698C25.3216 28.0271 25.8757 27.6807 25.846 27.1563L25.6296 23.7478C25.5975 23.2423 25.8264 22.7589 26.2139 22.4326C27.9431 20.9768 29.299 19.1442 30.457 17.2615C30.9814 16.4105 31.0012 15.4012 30.4966 14.5404Z" fill="url(#paint2_linear_7155_6142)" />
		<path d="M30.4966 14.5404C28.5625 10.75 24.1144 6.26831 17 6.26831C9.86582 6.26831 5.46877 10.5156 3.54302 14.58C3.0186 15.4309 2.99881 16.4501 3.50344 17.3109C6.00684 21.635 9.88561 25.583 17 25.583C17.9468 25.583 18.8781 25.5416 19.7295 25.4207C20.1896 25.3554 20.6634 25.4135 21.0723 25.6343C22.2265 26.2576 23.3871 26.9337 24.8664 27.7698C25.3216 28.0271 25.8757 27.6807 25.846 27.1563L25.6296 23.7478C25.5975 23.2423 25.8264 22.7589 26.2139 22.4326C27.9431 20.9768 29.299 19.1442 30.457 17.2615C30.9814 16.4105 31.0012 15.4012 30.4966 14.5404Z" fill="url(#paint3_radial_7155_6142)" />
	</g>
	<g filter="url(#filter1_f_7155_6142)">
		<path d="M25.0833 20.8323L25.3696 26.6498C25.3814 26.8893 25.0818 27.0064 24.9281 26.8224L21.2813 22.4573L23.625 18.926L25.0833 20.8323Z" fill="url(#paint4_linear_7155_6142)" />
	</g>
	<g filter="url(#filter2_f_7155_6142)">
		<path transform="matrix(-1 0 0 1 14.6239 16.0001)" fill="#EBE4FB" fill-opacity="0.75" d="M-8.7198 0a8.7198 5.6895 0 1 0 17.4397 0a8.7198 5.6895 0 1 0 -17.4397 0" />
	</g>
	<defs>
		<filter id="filter0_i_7155_6142" x="3.13702" y="6.26831" width="27.726" height="21.5984" filterUnits="userSpaceOnUse" color-interpolation-filters="sRGB">
			<feFlood flood-opacity="0" result="BackgroundImageFix">
			</feFlood>
			<feBlend mode="normal" in="SourceGraphic" in2="BackgroundImageFix" result="shape">
			</feBlend>
			<feColorMatrix in="SourceAlpha" type="matrix" values="0 0 0 0 0 0 0 0 0 0 0 0 0 0 0 0 0 0 127 0" result="hardAlpha">
			</feColorMatrix>
			<feOffset dy="0.01">
			</feOffset>
			<feGaussianBlur stdDeviation="0.25">
			</feGaussianBlur>
			<feComposite in2="hardAlpha" operator="arithmetic" k2="-1" k3="1">
			</feComposite>
			<feColorMatrix type="matrix" values="0 0 0 0 0.758333 0 0 0 0 0.758333 0 0 0 0 0.758333 0 0 0 1 0">
			</feColorMatrix>
			<feBlend mode="normal" in2="shape" result="effect1_innerShadow_7155_6142">
			</feBlend>
		</filter>
		<filter id="filter1_f_7155_6142" x="20.2813" y="17.926" width="6.08868" height="9.98657" filterUnits="userSpaceOnUse" color-interpolation-filters="sRGB">
			<feFlood flood-opacity="0" result="BackgroundImageFix">
			</feFlood>
			<feBlend mode="normal" in="SourceGraphic" in2="BackgroundImageFix" result="shape">
			</feBlend>
			<feGaussianBlur stdDeviation="0.5" result="effect1_foregroundBlur_7155_6142">
			</feGaussianBlur>
		</filter>
		<filter id="filter2_f_7155_6142" x="0.904114" y="5.31055" width="27.4397" height="21.3792" filterUnits="userSpaceOnUse" color-interpolation-filters="sRGB">
			<feFlood flood-opacity="0" result="BackgroundImageFix">
			</feFlood>
			<feBlend mode="normal" in="SourceGraphic" in2="BackgroundImageFix" result="shape">
			</feBlend>
			<feGaussianBlur stdDeviation="2.5" result="effect1_foregroundBlur_7155_6142">
			</feGaussianBlur>
		</filter>
		<radialGradient id="paint0_radial_7155_6142" cx="0" cy="0" r="1" gradientUnits="userSpaceOnUse" gradientTransform="translate(12.8125 12.0511) rotate(69.444) scale(24.03 44.8268)">
			<stop stop-color="white">
			</stop>
			<stop offset="1" stop-color="#D7C6DE">
			</stop>
		</radialGradient>
		<radialGradient id="paint1_radial_7155_6142" cx="0" cy="0" r="1" gradientUnits="userSpaceOnUse" gradientTransform="translate(22.25 25.0511) rotate(-149.997) scale(27.4972 39.7665)">
			<stop offset="0.615623" stop-color="#CECECE" stop-opacity="0">
			</stop>
			<stop offset="0.827013" stop-color="#CECECE">
			</stop>
		</radialGradient>
		<linearGradient id="paint2_linear_7155_6142" x1="28.5671" y1="-8.51513" x2="11.1875" y2="29.7386" gradientUnits="userSpaceOnUse">
			<stop offset="0.7314" stop-color="#B6A8F2" stop-opacity="0">
			</stop>
			<stop offset="0.986396" stop-color="#B6A8F2">
			</stop>
		</linearGradient>
		<radialGradient id="paint3_radial_7155_6142" cx="0" cy="0" r="1" gradientUnits="userSpaceOnUse" gradientTransform="translate(30.863 24.5511) rotate(10.5948) scale(5.09895 8.54596)">
			<stop stop-color="#B6A8F2">
			</stop>
			<stop offset="1" stop-color="#B6A8F2" stop-opacity="0">
			</stop>
		</radialGradient>
		<linearGradient id="paint4_linear_7155_6142" x1="22.9034" y1="27.2947" x2="19.9813" y2="21.8216" gradientUnits="userSpaceOnUse">
			<stop stop-color="white">
			</stop>
			<stop offset="0.778709" stop-color="white" stop-opacity="0">
			</stop>
		</linearGradient>
	</defs>
</svg>

<svg width="33" height="32" fill="none" xmlns="http://www.w3.org/2000/svg"><g filter="url(#a)"><path d="M30.497 14.54C28.563 10.75 24.114 6.268 17 6.268c-7.134 0-11.531 4.248-13.457 8.312a2.61 2.61 0 0 0-.04 2.73C6.007 21.636 9.886 25.584 17 25.584c.947 0 1.878-.041 2.73-.162.46-.066.933-.008 1.342.213 1.155.624 2.315 1.3 3.794 2.136a.657.657 0 0 0 .98-.614l-.216-3.408a1.599 1.599 0 0 1 .584-1.315c1.73-1.456 3.085-3.289 4.243-5.171.524-.852.544-1.86.04-2.722Z" fill="url(#b)"/><path d="M30.497 14.54C28.563 10.75 24.114 6.268 17 6.268c-7.134 0-11.531 4.248-13.457 8.312a2.61 2.61 0 0 0-.04 2.73C6.007 21.636 9.886 25.584 17 25.584c.947 0 1.878-.041 2.73-.162.46-.066.933-.008 1.342.213 1.155.624 2.315 1.3 3.794 2.136a.657.657 0 0 0 .98-.614l-.216-3.408a1.599 1.599 0 0 1 .584-1.315c1.73-1.456 3.085-3.289 4.243-5.171.524-.852.544-1.86.04-2.722Z" fill="url(#c)"/><path d="M30.497 14.54C28.563 10.75 24.114 6.268 17 6.268c-7.134 0-11.531 4.248-13.457 8.312a2.61 2.61 0 0 0-.04 2.73C6.007 21.636 9.886 25.584 17 25.584c.947 0 1.878-.041 2.73-.162.46-.066.933-.008 1.342.213 1.155.624 2.315 1.3 3.794 2.136a.657.657 0 0 0 .98-.614l-.216-3.408a1.599 1.599 0 0 1 .584-1.315c1.73-1.456 3.085-3.289 4.243-5.171.524-.852.544-1.86.04-2.722Z" fill="url(#d)"/><path d="M30.497 14.54C28.563 10.75 24.114 6.268 17 6.268c-7.134 0-11.531 4.248-13.457 8.312a2.61 2.61 0 0 0-.04 2.73C6.007 21.636 9.886 25.584 17 25.584c.947 0 1.878-.041 2.73-.162.46-.066.933-.008 1.342.213 1.155.624 2.315 1.3 3.794 2.136a.657.657 0 0 0 .98-.614l-.216-3.408a1.599 1.599 0 0 1 .584-1.315c1.73-1.456 3.085-3.289 4.243-5.171.524-.852.544-1.86.04-2.722Z" fill="url(#e)"/></g><g filter="url(#f)"><path d="m25.083 20.832.287 5.818a.25.25 0 0 1-.442.172l-3.647-4.365 2.344-3.531 1.458 1.906Z" fill="url(#g)"/></g><g filter="url(#h)"><path fill="#EBE4FB" fill-opacity=".75" d="M23.344 16a5.69 8.72 90 1 1-17.44 0 5.69 8.72 90 1 1 17.44 0"/></g><defs><radialGradient id="b" cx="0" cy="0" r="1" gradientUnits="userSpaceOnUse" gradientTransform="matrix(8.43748 22.5 -41.97265 15.7397 12.813 12.051)"><stop stop-color="#fff"/><stop offset="1" stop-color="#D7C6DE"/></radialGradient><radialGradient id="c" cx="0" cy="0" r="1" gradientUnits="userSpaceOnUse" gradientTransform="rotate(-149.997 14.482 9.544) scale(27.4972 39.7665)"><stop offset=".616" stop-color="#CECECE" stop-opacity="0"/><stop offset=".827" stop-color="#CECECE"/></radialGradient><radialGradient id="e" cx="0" cy="0" r="1" gradientUnits="userSpaceOnUse" gradientTransform="matrix(5.01202 .9375 -1.57128 8.40027 30.863 24.551)"><stop stop-color="#B6A8F2"/><stop offset="1" stop-color="#B6A8F2" stop-opacity="0"/></radialGradient><filter id="a" x="3.137" y="6.268" width="27.726" height="21.598" filterUnits="userSpaceOnUse" color-interpolation-filters="sRGB"><feFlood flood-opacity="0" result="BackgroundImageFix"/><feBlend in="SourceGraphic" in2="BackgroundImageFix" result="shape"/><feColorMatrix in="SourceAlpha" values="0 0 0 0 0 0 0 0 0 0 0 0 0 0 0 0 0 0 127 0" result="hardAlpha"/><feOffset dy=".01"/><feGaussianBlur stdDeviation=".25"/><feComposite in2="hardAlpha" operator="arithmetic" k2="-1" k3="1"/><feColorMatrix values="0 0 0 0 0.758333 0 0 0 0 0.758333 0 0 0 0 0.758333 0 0 0 1 0"/><feBlend in2="shape" result="effect1_innerShadow_7155_6142"/></filter><filter id="f" x="20.281" y="17.926" width="6.089" height="9.987" filterUnits="userSpaceOnUse" color-interpolation-filters="sRGB"><feFlood flood-opacity="0" result="BackgroundImageFix"/><feBlend in="SourceGraphic" in2="BackgroundImageFix" result="shape"/><feGaussianBlur stdDeviation=".5" result="effect1_foregroundBlur_7155_6142"/></filter><filter id="h" x=".904" y="5.311" width="27.44" height="21.379" filterUnits="userSpaceOnUse" color-interpolation-filters="sRGB"><feFlood flood-opacity="0" result="BackgroundImageFix"/><feBlend in="SourceGraphic" in2="BackgroundImageFix" result="shape"/><feGaussianBlur stdDeviation="2.5" result="effect1_foregroundBlur_7155_6142"/></filter><linearGradient id="d" x1="28.567" y1="-8.515" x2="11.188" y2="29.739" gradientUnits="userSpaceOnUse"><stop offset=".731" stop-color="#B6A8F2" stop-opacity="0"/><stop offset=".986" stop-color="#B6A8F2"/></linearGradient><linearGradient id="g" x1="22.903" y1="27.295" x2="19.981" y2="21.822" gradientUnits="userSpaceOnUse"><stop stop-color="#fff"/><stop offset=".779" stop-color="#fff" stop-opacity="0"/></linearGradient></defs></svg>
